public/assets/icons/html.svg

<svg width="48" height="48" viewBox="0 0 256 256" fill="none"
  xmlns="http://www.w3.org/2000/svg"
  xmlns:xlink="http://www.w3.org/1999/xlink" version="1.1">

  <g transform="translate(0, 0)">
    <svg xmlns="http://www.w3.org/2000/svg" width="256" height="256" fill="none" viewBox="0 0 256 256">
      <rect width="256" height="256" fill="#E14E1D" rx="60"/>
      <path fill="#fff" d="M48 38L56.6098 134.593H167.32L163.605 176.023L127.959 185.661L92.38 176.037L90.0012 149.435H57.9389L62.5236 200.716L127.951 218.888L193.461 200.716L202.244 102.655H85.8241L82.901 69.9448H205.041H205.139L208 38H48Z"/>
      <path fill="#EBEBEB" d="M128 38H48L56.6098 134.593H128V102.655H85.8241L82.901 69.9448H128V38Z"/>
      <path fill="#EBEBEB" d="M128 185.647L127.959 185.661L92.38 176.037L90.0012 149.435H57.9388L62.5236 200.716L127.951 218.888L128 218.874V185.647Z"/>
    </svg>
  </g>

</svg>

<svg xmlns="http://www.w3.org/2000/svg" width="48" height="48" fill="none" viewBox="0 0 256 256"><svg xmlns="http://www.w3.org/2000/svg" width="256" height="256" viewBox="0 0 256 256"><rect width="256" height="256" fill="#E14E1D" rx="60"/><path fill="#fff" d="m48 38 8.61 96.593h110.71l-3.715 41.43-35.646 9.638-35.579-9.624-2.379-26.602H57.94l4.585 51.281 65.427 18.172 65.51-18.172 8.783-98.061H85.824l-2.923-32.71h122.238L208 38z"/><path fill="#EBEBEB" d="M128 38H48l8.61 96.593H128v-31.938H85.824l-2.923-32.71H128zM128 185.647l-.041.014-35.579-9.624-2.379-26.602H57.94l4.585 51.281 65.427 18.172.049-.014z"/></svg></svg>
